X: 173
T:Leaping Jack
% Nottingham Music Database
S:John Kirkpatrick, via Phil Rowe
M:6/8
K:A
E|"A"A2E A2B|cBA e2c|"D"ded "A"c2B|"E7"ABA GFE|
"A"A2E A2B|"A"cBA e2c|"Bm"ded "E7"c2B|"A"A3 -A2::
c/2d/2|"A"efe cBA|"D"d2f a2f|"A"efe cBA|"Bm"d2c "E7"B2c/2d/2|
"A"efe cBA|"D"d2f a2f|"E7"efe dcB|"A"A3 -A2:|<end>
<start>
